X: 6
T: Greig's Pipes
R: reel
M: 4/4
L: 1/8
K: Edor
f/g/|a>df>d a>df>b|a>df>d e>BBf/g/|a>df>d adfd|e/e/e fd eBB :|
e|f>df>d f>dd>e|f>df>d eBBe|f>df>d a>dfd|e/e/e fd eBB :|
d|ADFD ADDd|ADFD BEEd|ADFD ADFD | GBFA BEE :|
z|d>edA FDDc|d/c/B/A/ dA BEEc| d>edA F/G/AFD|GBFA BEE :|


Tune 605	Setting 13624

